media/img/options.svg

<svg fill="none" height="29" viewBox="0 0 28 29" width="28" xmlns="http://www.w3.org/2000/svg" xmlns:xlink="http://www.w3.org/1999/xlink"><filter id="a" color-interpolation-filters="sRGB" filterUnits="userSpaceOnUse" height="29.52" width="29.5201" x="-1.11992" y=".800049"><feFlood flood-opacity="0" result="BackgroundImageFix"/><feColorMatrix in="SourceAlpha" result="hardAlpha" type="matrix" values="0 0 0 0 0 0 0 0 0 0 0 0 0 0 0 0 0 0 127 0"/><feOffset dy="7.2"/><feGaussianBlur stdDeviation="3.6"/><feComposite in2="hardAlpha" operator="out"/><feColorMatrix type="matrix" values="0 0 0 0 1 0 0 0 0 0.854902 0 0 0 0 0.0235294 0 0 0 0.1 0"/><feBlend in2="BackgroundImageFix" mode="normal" result="effect1_dropShadow_42_124"/><feBlend in="SourceGraphic" in2="effect1_dropShadow_42_124" mode="normal" result="shape"/></filter><g fill="#242028" filter="url(#a)"><path d="m18.0498 6.46998c-.3899.00109-.7699.12277-1.088.34835s-.5586.54401-.6886.91165h-8.30336c-.16708 0-.32733.06637-.44547.18452-.11815.11815-.18453.27839-.18453.44548 0 .16708.06638.32733.18453.44548.11814.11814.27839.18452.44547.18452h8.30336c.1156.32689.3189.61569.5876.8348.2687.21912.5925.36002.936.40742s.6934-.0006 1.0114-.1387c.318-.13817.5919-.36113.7917-.64451.1997-.28338.3177-.61625.341-.96219s-.0491-.69162-.2091-.9992c-.1601-.30758-.4016-.56521-.6983-.74469-.2966-.17948-.6369-.27391-.9837-.27293z"/><path d="m7.96984 5.21001h.7434c.13243.36487.37399.68011.69185.90289s.69661.34229 1.08471.34229c.3882 0 .7669-.11951 1.0848-.34229s.5594-.53802.6918-.90289h7.0434c.1671 0 .3274-.06637.4455-.18452.1182-.11815.1845-.27839.1845-.44548 0-.16708-.0663-.32733-.1845-.44547-.1181-.11815-.2784-.18453-.4455-.18453h-7.0434c-.1324-.36486-.3739-.68011-.6918-.90289s-.6966-.34229-1.0848-.34229c-.3881 0-.76685.11951-1.08471.34229s-.55942.53803-.69185.90289h-.7434c-.16708 0-.32733.06638-.44547.18453-.11815.11814-.18453.27839-.18453.44547 0 .16709.06638.32733.18453.44548.11814.11815.27839.18452.44547.18452z"/><path d="m19.3098 11.5101h-4.5234c-.1324-.3649-.3739-.6801-.6918-.9029s-.6966-.3423-1.0848-.3423c-.3881 0-.7669.1195-1.0847.3423-.3179.2228-.5594.538-.6919.9029h-3.26336c-.16708 0-.32733.0663-.44547.1845-.11815.1181-.18453.2784-.18453.4455s.06638.3273.18453.4455c.11814.1181.27839.1845.44547.1845h3.26336c.1325.3648.374.6801.6919.9029.3178.2227.6966.3423 1.0847.3423.3882 0 .7669-.1196 1.0848-.3423.3179-.2228.5594-.5381.6918-.9029h4.5234c.1671 0 .3274-.0664.4455-.1845.1182-.1182.1845-.2784.1845-.4455s-.0663-.3274-.1845-.4455c-.1181-.1182-.2784-.1845-.4455-.1845z"/></g></svg>

<svg width="28" height="29" viewBox="0 0 28 29" fill="none" xmlns="http://www.w3.org/2000/svg">
<g filter="url(#filter0_d_42_124)">
<path d="M18.0498 6.46998C17.6599 6.47107 17.2799 6.59275 16.9618 6.81833C16.6437 7.04391 16.4032 7.36234 16.2732 7.72998H7.96984C7.80276 7.72998 7.64251 7.79635 7.52437 7.9145C7.40622 8.03265 7.33984 8.19289 7.33984 8.35998C7.33984 8.52706 7.40622 8.68731 7.52437 8.80546C7.64251 8.9236 7.80276 8.98998 7.96984 8.98998H16.2732C16.3888 9.31687 16.5921 9.60567 16.8608 9.82478C17.1295 10.0439 17.4533 10.1848 17.7968 10.2322C18.1403 10.2796 18.4902 10.2316 18.8082 10.0935C19.1262 9.95533 19.4001 9.73237 19.5999 9.44899C19.7996 9.16561 19.9176 8.83274 19.9409 8.4868C19.9642 8.14086 19.8918 7.79518 19.7318 7.4876C19.5717 7.18002 19.3302 6.92239 19.0335 6.74291C18.7369 6.56343 18.3966 6.469 18.0498 6.46998Z" fill="#242028"/>
<path d="M7.96984 5.21001H8.71324C8.84567 5.57488 9.08723 5.89012 9.40509 6.1129C9.72295 6.33568 10.1017 6.45519 10.4898 6.45519C10.878 6.45519 11.2567 6.33568 11.5746 6.1129C11.8925 5.89012 12.134 5.57488 12.2664 5.21001H19.3098C19.4769 5.21001 19.6372 5.14364 19.7553 5.02549C19.8735 4.90734 19.9398 4.7471 19.9398 4.58001C19.9398 4.41293 19.8735 4.25268 19.7553 4.13454C19.6372 4.01639 19.4769 3.95001 19.3098 3.95001H12.2664C12.134 3.58515 11.8925 3.2699 11.5746 3.04712C11.2567 2.82434 10.878 2.70483 10.4898 2.70483C10.1017 2.70483 9.72295 2.82434 9.40509 3.04712C9.08723 3.2699 8.84567 3.58515 8.71324 3.95001H7.96984C7.80276 3.95001 7.64251 4.01639 7.52437 4.13454C7.40622 4.25268 7.33984 4.41293 7.33984 4.58001C7.33984 4.7471 7.40622 4.90734 7.52437 5.02549C7.64251 5.14364 7.80276 5.21001 7.96984 5.21001Z" fill="#242028"/>
<path d="M19.3098 11.5101H14.7864C14.654 11.1452 14.4125 10.83 14.0946 10.6072C13.7767 10.3844 13.398 10.2649 13.0098 10.2649C12.6217 10.2649 12.2429 10.3844 11.9251 10.6072C11.6072 10.83 11.3657 11.1452 11.2332 11.5101H7.96984C7.80276 11.5101 7.64251 11.5764 7.52437 11.6946C7.40622 11.8127 7.33984 11.973 7.33984 12.1401C7.33984 12.3072 7.40622 12.4674 7.52437 12.5856C7.64251 12.7037 7.80276 12.7701 7.96984 12.7701H11.2332C11.3657 13.1349 11.6072 13.4502 11.9251 13.673C12.2429 13.8957 12.6217 14.0153 13.0098 14.0153C13.398 14.0153 13.7767 13.8957 14.0946 13.673C14.4125 13.4502 14.654 13.1349 14.7864 12.7701H19.3098C19.4769 12.7701 19.6372 12.7037 19.7553 12.5856C19.8735 12.4674 19.9398 12.3072 19.9398 12.1401C19.9398 11.973 19.8735 11.8127 19.7553 11.6946C19.6372 11.5764 19.4769 11.5101 19.3098 11.5101Z" fill="#242028"/>
</g>
<defs>
<filter id="filter0_d_42_124" x="-1.11992" y="0.800049" width="29.5201" height="29.52" filterUnits="userSpaceOnUse" color-interpolation-filters="sRGB">
<feFlood flood-opacity="0" result="BackgroundImageFix"/>
<feColorMatrix in="SourceAlpha" type="matrix" values="0 0 0 0 0 0 0 0 0 0 0 0 0 0 0 0 0 0 127 0" result="hardAlpha"/>
<feOffset dy="7.2"/>
<feGaussianBlur stdDeviation="3.6"/>
<feComposite in2="hardAlpha" operator="out"/>
<feColorMatrix type="matrix" values="0 0 0 0 1 0 0 0 0 0.854902 0 0 0 0 0.0235294 0 0 0 0.1 0"/>
<feBlend mode="normal" in2="BackgroundImageFix" result="effect1_dropShadow_42_124"/>
<feBlend mode="normal" in="SourceGraphic" in2="effect1_dropShadow_42_124" result="shape"/>
</filter>
</defs>
</svg>
